packages/ffe-icons/icons/open/400/sm/calendar_month.svg

<svg xmlns="http://www.w3.org/2000/svg" height="20" viewBox="0 -960 960 960" width="20"><path d="M216-96q-29.7 0-50.85-21.5Q144-139 144-168v-528q0-29 21.15-50.5T216-768h72v-60q0-15.3 10.29-25.65Q308.58-864 323.79-864t25.71 10.35Q360-843.3 360-828v60h240v-60q0-15.3 10.29-25.65Q620.58-864 635.79-864t25.71 10.35Q672-843.3 672-828v60h72q29.7 0 50.85 21.5Q816-725 816-696v528q0 29-21.15 50.5T744-96H216Zm0-72h528v-360H216v360Zm0-432h528v-96H216v96Zm0 0v-96 96Zm264.21 216q-15.21 0-25.71-10.29t-10.5-25.5q0-15.21 10.29-25.71t25.5-10.5q15.21 0 25.71 10.29t10.5 25.5q0 15.21-10.29 25.71t-25.5 10.5Zm-156 0q-15.21 0-25.71-10.29t-10.5-25.5q0-15.21 10.29-25.71t25.5-10.5q15.21 0 25.71 10.29t10.5 25.5q0 15.21-10.29 25.71t-25.5 10.5Zm312 0q-15.21 0-25.71-10.29t-10.5-25.5q0-15.21 10.29-25.71t25.5-10.5q15.21 0 25.71 10.29t10.5 25.5q0 15.21-10.29 25.71t-25.5 10.5Zm-156 144q-15.21 0-25.71-10.29t-10.5-25.5q0-15.21 10.29-25.71t25.5-10.5q15.21 0 25.71 10.29t10.5 25.5q0 15.21-10.29 25.71t-25.5 10.5Zm-156 0q-15.21 0-25.71-10.29t-10.5-25.5q0-15.21 10.29-25.71t25.5-10.5q15.21 0 25.71 10.29t10.5 25.5q0 15.21-10.29 25.71t-25.5 10.5Zm312 0q-15.21 0-25.71-10.29t-10.5-25.5q0-15.21 10.29-25.71t25.5-10.5q15.21 0 25.71 10.29t10.5 25.5q0 15.21-10.29 25.71t-25.5 10.5Z"/></svg>

<svg xmlns="http://www.w3.org/2000/svg" height="20" viewBox="0 -960 960 960" width="20"><path d="M216-96q-29.7 0-50.85-21.5Q144-139 144-168v-528q0-29 21.15-50.5T216-768h72v-60q0-15.3 10.289-25.65 10.29-10.35 25.5-10.35Q339-864 349.5-853.65 360-843.3 360-828v60h240v-60q0-15.3 10.289-25.65 10.29-10.35 25.5-10.35Q651-864 661.5-853.65 672-843.3 672-828v60h72q29.7 0 50.85 21.5Q816-725 816-696v528q0 29-21.15 50.5T744-96H216Zm0-72h528v-360H216v360Zm0-432h528v-96H216v96Zm0 0v-96 96Zm264.211 216Q465-384 454.5-394.289q-10.5-10.29-10.5-25.5Q444-435 454.289-445.5q10.29-10.5 25.5-10.5Q495-456 505.5-445.711q10.5 10.29 10.5 25.5Q516-405 505.711-394.5q-10.29 10.5-25.5 10.5Zm-156 0Q309-384 298.5-394.289q-10.5-10.29-10.5-25.5Q288-435 298.289-445.5q10.29-10.5 25.5-10.5Q339-456 349.5-445.711q10.5 10.29 10.5 25.5Q360-405 349.711-394.5q-10.29 10.5-25.5 10.5Zm312 0Q621-384 610.5-394.289q-10.5-10.29-10.5-25.5Q600-435 610.289-445.5q10.29-10.5 25.5-10.5Q651-456 661.5-445.711q10.5 10.29 10.5 25.5Q672-405 661.711-394.5q-10.29 10.5-25.5 10.5Zm-156 144Q465-240 454.5-250.289q-10.5-10.29-10.5-25.5Q444-291 454.289-301.5q10.29-10.5 25.5-10.5Q495-312 505.5-301.711q10.5 10.29 10.5 25.5Q516-261 505.711-250.5q-10.29 10.5-25.5 10.5Zm-156 0Q309-240 298.5-250.289q-10.5-10.29-10.5-25.5Q288-291 298.289-301.5q10.29-10.5 25.5-10.5Q339-312 349.5-301.711q10.5 10.29 10.5 25.5Q360-261 349.711-250.5q-10.29 10.5-25.5 10.5Zm312 0Q621-240 610.5-250.289q-10.5-10.29-10.5-25.5Q600-291 610.289-301.5q10.29-10.5 25.5-10.5Q651-312 661.5-301.711q10.5 10.29 10.5 25.5Q672-261 661.711-250.5q-10.29 10.5-25.5 10.5Z"/></svg>
